X: 48
T:Last Days of August, The
M:4/4
L:1/8
C:Bobby Frew
R:Reel
K:A
AB|"A"cABc ABcA|"A"B2 AB cABc|"A"ABcA "F#m"BAFE|"Bm"FBBc "E7"B2 AB|"A"cA
Bc ABcA|!
"A"B2 AB cABc|"F#m"efec "E7"BAFE|"D"F2 A2 "A"A2:||:cd|"A"ecea "D"fddf|"A
"ecce "E7"dBBd|!
"A"cAce "F#m"dcBA|"B7"FBBc "E7"B2 cd|"A"ecea "D"fddf|"A"ecce "E7"dBBd|
"A"cdec "A7"BAFE|"D"F2 A2 "A"A2:||
